X:1
T:Out of the Deep
T:for Quintus Imperfectus
%%score [ 1 2 3 4 ]
L:1/8
Q:1/4=100
M:4/4
K:Bb
V:1 treble nm="Soprano" snm="S."
V:2 treble nm="Alto" snm="A."
V:3 treble-8 nm="Tenor" snm="T."
V:4 bass nm="Bass" snm="B."
V:1
"^Contrafactum of CPDL #02781 and #19301. Words are taken from Winkworth's translation of Luther's\n\"Aus tiefer Not schrei ich zu dir\". The music has been arranged from the two sources, and is in no way authoritative"!mf! G4 G2 A2 | %1
w: Out of the|
 F4 B2 A2- | A(D G2) ^F4 |"^Thomas Tallis (arr.)" z8 |[M:4/4] z2!mp! G2 B2 B2 | A3 G F2 F2 | %6
w: Deep I cry|* to * Thee,||Lord hear me,|hear me I im-|
 =E4 D2!mf! d2 | d2 c2 B2 A2 | G4 F4 | z4 z2 c2 | B2 A2 (A2 G2) | F2 G3 G ^F2 | G4 |: %13
w: plore Thee, Lord|hear me, I im-|plore Thee,|Lord|hear me, hear *|me I im- plore|Thee.|
 z2!p! (F4 G2) | A4 z2 F2 | G2 B2 B2 A2 | B2 B2 | (F3 G AB c2- | cB B4 A2 | B4 | z4 z2!mp! G2 | %21
w: Bow *|down, bow|down Thy gra- cious|ear, thy|gra * * * *|* cious ear to|me,|and|
 A3 A A2 z2 |!<(! B3 A G2 F2 |"^2nd time Rit" c3 B) (A2 G2- | %24
w: let my prayer,|let my prayer my|prayer * come *|
 G2) ^F2!<)!"^© Harrison Hackett April 2014.\n\nThis edition may be copied, distributed, performed and/or modified under the terms of version 4\nof the Choral Public Domain Library licence http://www.cpdl.org/wiki/index.php/ChoralWiki:CPDL" !fermata!G4 :| %25
w: * to Thee.|
V:2
!mf! D4 D2 D2 | D6 A,2 | D2 D2 D2!mp! D2 | F2 F2 (C3 D) |[M:4/4] E2 E2 D2 F2 | F2 =E2 D2 D2- | %6
w: Out of the|Deep I|cry to Thee, Lord|hear me hear *|me, Lord hear me|hear me I im|
 D2 ^C2 D2!mf! F2 | F2 (=E3 D) D2- | DD ^C2 D4 | z8 | z2 =F2 E2 D2 | D2 C2 D4 | D4 |: z2!p! D6 | %14
w: * plore Thee, Lord|hear me * I|* im- plore Thee,||Lord hear me|I im- plore|Thee.|Bow|
 F2 C2 D2 F2 | G2 E2 F4 | D2 (B,2- | B,CD=E) F2 F2 | G2 =E2 F3 _E | D4 | z2!mp! B,2 E3 D | %21
w: down, bow down Thy|gra- cious ear,|Thy gra|* * * cious ear, Thy|gra- cious ear to|me,|and let- my|
 C2 C2 F3 =E | D4 z2!<(! D2 | G3 F E2 C2 | D4!<)! !fermata!D4 :| %25
w: prayer, and let my|prayer, and|let my prayer come|to Thee.|
V:3
!mf! B4 B2 A2 | A4 z2 F2 | B2 B2 A4- | A4 z2!mp! A2 |[M:4/4][K:treble-8] c2 c2 B2 d2 | %5
w: Out of the|Deep I|cry to Thee|* Lord|hear me, hear me|
 (c3 B A2) F2 | (G2 A2) D2!mf! D2 | (A4 F4 | G4 A2 d2 | c2 B2 A2 G2 | G2 ^F2 (A2 B2) | A2 G2 A4 | %12
w: I * * im-|plore * Thee, Lord|hear *|* me, Lord|hear me, hear me,|I im- plore, *|I im- plore|
 G4 |: z2!p! A4 B2) | c2 A2 B2 d2 | (c2 B2) c4 | B2 d2 | d2 d2 c2 c2 | (d2 B2) c4 | B4 | %20
w: Thee.|Bow *|down, bow down Thy|gra * cious|ear, bow|down Thy gra- cious|ear * to|me,|
 z2!mp! G2 c3 B | A2 A2 d3 c | B4 z2!<(! B2 | e3 d (cB) (AG) | A4!<)! !fermata!=B4 :| %25
w: and let my|prayer and let my|prayer, and|let my prayer * come *|to Thee.|
V:4
!mf! G,4 G,2 F,2 | D,6 D,2 | B,,2 G,,2 D,4 | z2!mp! D,2 F,2 F,2 |[M:4/4] (C,D,E,F, G,2) D,2 | %5
w: Out of the|Deep I|cry to Thee|Lord hear me,|hear * * * * me,|
 (F,2 C,2) D,4 | z2!mf! A,,2 B,,4 | A,,4 D,2 F,2 | =E,4 D,2 B,2 | A,2 G,2 F,2 E,2 | %10
w: hear * me|Lord hear|me I im-|plore Thee, Lord|hear me hear me|
 D,3 D, (C,2 B,,2) | D,2 E,2 D,4 | G,,4 |: z2!p! (D,4 G,2) | F,4 z2 B,,2 | E,2 G,2 F,3 F, | B,,4 | %17
w: I im- plore *|I im- plore|Thee.|Bow *|down, bow|down Thy gra- cious|ear,|
 z2 B,2 F,2 A,2 | G,4 F,4 | B,,2!mp! B,,2 | E,3 D, C,2 C,2 | F,3 =E, D,2 D,2 |!<(! G,3 F, E,2 D,2 | %23
w: Thy gra- cious|ear to|me, and|let my prayer, and|let my prayer, and|let my prayer, my|
 (C,2 G,,2) (C,2 E,2) | D,4!<)! !fermata!G,,4 :| %25
w: prayer * come *|to Thee.|

